!!!COM: Zenaro, Giulio
!!!CDT: <1588->1590
!!!PDT: 1589
!!!PUB-format:
!!!OTL: O fuggitiva e timidetta fiera
!!!OTL-rime: O fuggitiva e timidetta fiera
!!!PTL: Il primo libro de madrigali a tre voci
!!!PPP: Venice
!!!PPR: Vincenzi & Amadino
!!!PDT: 1589
!!!RISM: Z 160
!!!AGN: Madrigal
!!!rime: 903
!!!SCT: Trm0903a
!!!SCA: Trm0903a
!!!original-voices:	3
!!!extant-voices: 3
!!!complete: Y
!!!final: G
**kern	**text	**kern	**text	**kern	**text
*part3	*part3	*part2	*part2	*part1	*part1
*staff3	*staff3	*staff2	*staff2	*staff1	*staff1
*Ivox	*	*Ivox	*	*Ivox	*
*I"Basso	*	*I"Tenore	*	*I"Canto	*
*I'B	*	*I'T	*	*I'C	*
*oclefC3	*	*oclefC2	*	*oclefG2	*
*clefGv2	*	*clefG2	*	*clefG2	*
*k[]	*	*k[]	*	*k[]	*
*omet(C)	*	*omet(C)	*	*omet(C)	*
*M4/2	*	*M4/2	*	*M4/2	*
=1	=1	=1	=1	=1	=1
0r	.	1r	.	2.dd	O
.	.	.	.	8cc	fu-
.	.	.	.	8dd	-gi-
.	.	2r	.	4ee	-ti-
.	.	.	.	4cc	-va e
.	.	4g	O	4.dd	ti-
.	.	8f	fu-	.	.
.	.	8g	-gi-	8b	-mi-
=2	=2	=2	=2	=2	=2
1r	.	4a	-ti-	4cc	-det-
.	.	4f	-va e	4a	-ta
.	.	4.e	ti-	4.g	fe-
.	.	8f	-mi-	8a	.
2r	.	4e	-det-	8bL	.
.	.	.	.	8ccJ	.
.	.	4f	-ta	4a	.
4G	O	[2d	fe-	4.b	.
8G	fu-	.	.	.	.
8A	-gi-	.	.	8cc	.
=3	=3	=3	=3	=3	=3
4B	-ti-	2d]	.	1dd	-ra,
4G	-va e	.	.	.	.
4.d	ti-	2f	-ra,	.	.
8d	-mi-	.	.	.	.
4c	-det-	4e	<O	2r	.
4A	-ta	8e	fu-	.	.
.	.	8f	-gi-	.	.
4.G	fe-	4g	-ti-	4b	<O
.	.	4e	-va e	8b	fu-
8A	.	.	.	8cc	-gi-
=4	=4	=4	=4	=4	=4
8BL	.	4d	ti-	4dd	-ti-
8GJ	.	.	.	.	.
4A	.	4a	-mi-	4cc	-va e
4.B	.	4.g	-det-	4.dd	ti-
8c	.	8g	-ta	8ee	-mi-
4.d	.	4.f	fe-	4a	-det-
.	.	.	.	4dd	-ta
16cL	.	8g	.	.	.
16BJ	.	.	.	.	.
2A	-ra,	8aL	.	4.cc	fe-
.	.	8bJ	.	.	.
.	.	[4cc	.	.	.
.	.	.	.	8dd	.
=5	=5	=5	=5	=5	=5
2r	.	8cc]L	.	8eeL	.
.	.	8aJ	.	8ffJ	.
.	.	4b	.	4dd	.
4r	.	2cc	-ra,>	4.ee	.
4A	Che	.	.	.	.
.	.	.	.	8ff	.
4.e	sei	4r	.	2gg	-ra,>
.	.	4g	Che	.	.
8d	cac-	.	.	.	.
4.c	-cia-	4.e	sei	2r	.
8A	-ta	8f	cac-	.	.
=6	=6	=6	=6	=6	=6
4B	do-	4.g	-cia-	2r	.
4c	-v'in	.	.	.	.
.	.	8g	-ta	.	.
4B	car-	4g	do-	2dd	Che
4d	-ro a-	4f#X	-v'in	.	.
4.G	-dor-	4g	car-	4.b	sei
.	.	4d	-ro a-	.	.
8A	.	.	.	8cc	cac-
8BL	.	8gL	-dor-	4.dd	-cia-
8cJ	.	8eJ	.	.	.
4d	.	4fni	.	.	.
.	.	.	.	8dd	-ta
=7	=7	=7	=7	=7	=7
2A	-no,	4e	-no,	4cc#X	do-
.	.	2a	do-	4cc#i	-v'in
2d	in	.	.	4dd	car-
.	.	4f	-v'in	4a	-ro a-
4c	ca-	8eL	car-	8ccniL	-dor-
.	.	8f	.	8dd	.
4c	-ro a-	8g	.	8ee	.
.	.	8aJ	.	8ffJ	.
8cL	-dor-	4g	.	4.gg	.
8d	.	.	.	.	.
8e	.	4cc	-ro a-	.	.
8fJ	.	.	.	16ffL	.
.	.	.	.	16eeJ	.
=8	=8	=8	=8	=8	=8
2.g	.	2.b	-dor-	4dd	.
.	.	.	.	4cc	.
.	.	.	.	1dd	.
8f#iL	.	8aL	.	.	.
8eJ	.	8gJ	.	.	.
4f#X	.	2a	.	.	.
8eL	.	.	.	.	.
8f#iJ	.	.	.	.	.
2g	.	2b	-no	2dd	-no
=9	=9	=9	=9	=9	=9
4d	-no	4r	.	1r	.
4e	Ma-	4g	Ma-	.	.
4c#X	-don-	4a	-don-	.	.
4d	-na	4f#X	-na	.	.
4B	fa	4g	fa	4r	.
4cni	so-	4e	so-	4g	Ma-
2A	-gior-	4.cc	-gior-	4a	-don-
.	.	.	.	4e	-na
.	.	16bL	.	.	.
.	.	16aJ	.	.	.
=10	=10	=10	=10	=10	=10
8GL	-no,	2b	.	4g	fa
8A	.	.	.	.	.
8B	.	.	.	4g	so-
8cJ	.	.	.	.	.
2d	.	2a	-no,	2f#X	-gior-
4r	.	2r	.	4g	-no,
4B	Ma-	.	.	4dd	<Ma-
4c	-don-	4r	.	4ee	-don-
4A	-na	4a	<Ma-	4cc#X	-na
=11	=11	=11	=11	=11	=11
4d	fa	4f#X	-don-	4dd	fa
4e	so-	4g	-na	4b	so-
1A	-gior-	4e	fa	4cc#X	-gior-
.	.	4fni	so-	2dd	.
.	.	2e	-gior-	.	.
.	.	.	.	4cc#X	.
2d	-no,	2d	-no,>	2dd	-no,>
=12	=12	=12	=12	=12	=12
2r	.	2r	.	1ff	Deh!
2d	Deh!	1a	Deh!	.	.
2.c	non	.	.	2.ee	non
.	.	[2g	non	.	.
4d	t'in-	.	.	4ff	t'in-
=13	=13	=13	=13	=13	=13
2.e	-cres-	2g]	.	4.gg	-cre-
.	.	.	.	8ff	.
.	.	2cc	t'in-	1ee	.
4f	.	.	.	.	.
2g	.	2b	-cres-	.	.
2g	-cha,	4b	-cha,	4dd	-scha,
.	.	8g	ch'in	8b	ch'in
.	.	8a	s&igrave;	8cc	s&igrave;
=14	=14	=14	=14	=14	=14
1r	.	4b	ca-	4dd	ca-
.	.	4g	-ro	4ee	-ro
.	.	2a	lo-	2cc#X	lo-
4r	.	4d	-co,	2dd	-co,
8f	ch'in	8d	ch'in	.	.
8e	s&igrave;	8e	s&igrave;	.	.
4d	ca-	4f#X	ca-	4r	.
4G	-ro	4g	-ro	8b	<ch'in
.	.	.	.	8b	s&igrave;
=15	=15	=15	=15	=15	=15
2d	lo-	2f#X	lo-	4a	ca-
.	.	.	.	4a	-ro
2G	-co	2g	-co	4.b	lo-
.	.	.	.	16aL	.
.	.	.	.	16gJ	.
4r	.	1r	.	1a	.
4d	Ha-	.	.	.	.
4c#X	-vrei	.	.	.	.
4d	la	.	.	.	.
=16	=16	=16	=16	=16	=16
4G	mor-	2r	.	1b	-co>
4g	-t'a	.	.	.	.
4.e	gio-	4r	.	.	.
.	.	4g	Ha-	.	.
16dL	.	.	.	.	.
16cJ	.	.	.	.	.
8dL	.	4f#X	-vrei	1r	.
8c	.	.	.	.	.
8B	.	4g	la	.	.
8cJ	.	.	.	.	.
2A	.	4c	mor-	.	.
.	.	4cc	-t'a	.	.
=17	=17	=17	=17	=17	=17
2G	-co;	4.b	gio-	4r	.
.	.	.	.	4dd	Ha-
.	.	16aL	.	.	.
.	.	16gJ	.	.	.
4r	.	8aL	.	4cc#X	-vrei
.	.	8gJ	.	.	.
4d	a	4f#X	.	4dd	la
4.e	gio-	1g	.	4b	mor-
.	.	.	.	4gg	-t'a
8d	.	.	.	.	.
4.c	.	.	.	4.ee	gio-
16BL	.	.	.	16ddL	.
16AJ	.	.	.	16cc#iJ	.
=18	=18	=18	=18	=18	=18
8BL	.	4g	-co;	8ddL	.
8cJ	.	.	.	8eeJ	.
4A	.	4a	Per-	4cc#X	.
4d	-co;	2f#X	ch&eacute;	2dd	-co;
4d	Per-	.	.	.	.
4e	-ch&eacute;	2g	do-	1r	.
4B	do-	.	.	.	.
4.c	-v'el-	4.e	-v'el-	.	.
8A	-la	8fni	-la	.	.
=19	=19	=19	=19	=19	=19
4B	cac-	4.d	cac-	4r	.
4G	-cia, oh!	.	.	4b	Per-
.	.	8d	-cia, oh!	.	.
4c	pur	4e	pur	4g	-ch&eacute;
4G	mel	4g	mel	4b	do-
2d	cre-	2f#X	cre-	4.a	-v'el-
.	.	.	.	8a	-la
2G	-da,	4g	-da,	4.b	cac-
.	.	4d	oh!	.	.
.	.	.	.	8b	-cia, oh!
=20	=20	=20	=20	=20	=20
1r	.	4a	pur	4cc#X	pur
.	.	4fni	mel	4dd	mel
.	.	2e	cre-	2cc#X	cre-
2r	.	2d	-da,	2.dd	-da,
2g	Es-	4r	.	.	.
.	.	[4bn	Es-	[4gg	Es-
=21	=21	=21	=21	=21	=21
4e	-ser	8b]	.	8gg]	.
.	.	8bni	-ser	8gg	-ser
4f	io	4a	io	4ff	io
2c	bra-	4.cc	bra-	4.ee	bra-
.	.	16bL	.	16ddL	.
.	.	16aJ	.	16ccJ	.
4G	-mo,	2.b	.	1dd	.
[4g	Es-	.	.	.	.
8g]	.	.	.	.	.
8g	-ser	.	.	.	.
4f	io	8aL	.	.	.
.	.	8bJ	.	.	.
=22	=22	=22	=22	=22	=22
4.e	bra-	2cc	.	4ee	-mo,
.	.	.	.	4.gg	<Es-
16dL	.	.	.	.	.
16cJ	.	.	.	.	.
2d	.	2a	-mo,	.	.
.	.	.	.	8gg	-ser
.	.	.	.	4ff	io
4.c	-mo o	4r	.	4.ee	bra-
.	.	4.cc	<Es-	.	.
16BL	.	.	.	16ddL	.
16AJ	.	.	.	16ccJ	.
2G	.	.	.	2dd	.
.	.	8cc	-ser	.	.
.	.	4b	io	.	.
=23	=23	=23	=23	=23	=23
2.A	pre-	2a	bra-	1cc	-mo>
.	.	2e	-mo> o	.	.
4c	-da-	.	.	.	.
4A	-tor	4.f	pre-	2r	.
4A	o	.	.	.	.
.	.	8e	-da-	.	.
8GL	pre-	4.g	-tor	2b	o
8A	.	.	.	.	.
8B	.	.	.	.	.
8cJ	.	8g	o	.	.
=24	=24	=24	=24	=24	=24
2d	.	2f#X	pre-	4.a	pre-
.	.	.	.	8a	-da-
4B	-da,	4g	-da	4.dd	-tor
4G	o	4b	o	.	.
.	.	.	.	8dd	o
4.A	pre-	4.a	pre-	2cc#X	pre-
8A	-da-	8a	-da-	.	.
4.d	-tor	4a	-tor	2dd	-da,
.	.	4fni	o	.	.
8d	o	.	.	.	.
=25	=25	=25	=25	=25	=25
4c#X	pre-	4e	pre-	2r	.
4d	-da,	4d	-da,	.	.
4r	.	4r	.	4r	.
4d	Per-	4f#X	Per-	4dd	Per-
1G	-ch&eacute;	4.g	-ch&eacute;	4b	-ch&eacute;
.	.	.	.	4ee	do-
.	.	8a	do-	.	.
.	.	4.b	-v'el-	4.dd	-v'el-
.	.	8b	-la	8dd	-la
=26	=26	=26	=26	=26	=26
2r	.	4cc	cac-	4.ee	cac-
.	.	4a	-cia, oh!	.	.
.	.	.	.	8ff	-cia, oh!
2g	do-	4.b	pur	4dd	pur
.	.	.	.	4gg	mel
.	.	8b	mel	.	.
4d	-v'el-	2a	cre-	4.ff#X	cre-
4d	-la	.	.	.	.
.	.	.	.	16eeL	.
.	.	.	.	16ff#iJ	.
4.e	cac-	4.g	-da,	2gg	.
8e	-cia, oh!	8cc	oh!	.	.
=27	=27	=27	=27	=27	=27
4f#X	pur	4a	pur	4dd	-da,
4g	mel	4b	mel	4.dd	Es-
2f#X	cre-	2a	cre-	.	.
.	.	.	.	8dd	-ser
.	.	.	.	4dd	io
4g	-da,	4g	-da,	2.b	bra-
[4e	Es-	4.g	Es-	.	.
8e]	.	.	.	.	.
8e	-ser	8g	-ser	.	.
4B	io	4g	io	4dd	-mo o
=28	=28	=28	=28	=28	=28
2c	bra-	4.e	bra-	4.g	pre-
.	.	8f	.	8a	-da-
2G	-mo o	2g	.	4b	-tor
.	.	.	.	4dd	o
4.A	pre-	2e	-mo	2cc#X	pre-
8A	-da-	.	.	.	.
4.B	-tor	4r	.	2dd	-da,
.	.	4g	o	.	.
8c	o	.	.	.	.
=29	=29	=29	=29	=29	=29
0d	pre-	4.f	pre-	2a	o
.	.	8g	-da-	.	.
.	.	2a	-tor	4.ff	pre-
.	.	.	.	8ee	-da-
.	.	4f#X	o	4dd	-tor
.	.	2g	pre-	4b-X	o
.	.	.	.	2a	pre-
.	.	4f#X	.	.	.
=30	=30	=30	=30	=30	=30
0Gl	-da.	0gl	-da.	0bnil	-da.
==	==	==	==	==	==
*-	*-	*-	*-	*-	*-
!!!system-decoration: [*]
!!!RDF**kern: i = editorial accidental
!!!RDF**kern: l = terminal long
!!!ENC: Emiliano Ricciardi
!!!END: 2012
!!!EED: Ricciardi, Emiliano
!!!EEV: 2017/02/13
!!!YEC: Copyright 2013 Emiliano Ricciardi, All Rights Reserved
!!!ONB: Translated from MusicXML on 2013/08/19 and edited by Craig Stuart Sapp
!!@@BEGIN:	VERSEDATA
!!@SOLERTI:	903
!!@CATALOGNUM:	Trm0903
!!@LAST_MODIFIED: 2020/07/12
!!@TITLE:		O fuggitiva e timidetta fiera
!!@GENRE:		madrigale
!!@MANUSRC:	E<sub>1</sub>, F<sub>2</sub>
!!@PRINTSRC:	28, 48, 54, 141, 166, 169
!!@@BEGIN:	VERSES
!!@ABOUTIT:	[A don Cesare d'Este, per una lepre.]
!!@ABOUTEN:	[To don Cesare d'Este, for a hare.]
!!@EDITOR:	Solerti, Angelo
!!@EDITION_TITLE: Le Rime di Torquato Tasso
!!@EDITION_LOC:	Bologna
!!@EDITION_PUB:	Romagnoli-Dall’Acqua
!!@EDITION_DATE:  1898-1902
!!@EDITION_VOL:	2
!!@EDITION_PAGE:  453
!!@TRANSLATOR:	Emiliano Ricciardi and Amyrose McCue Gill
!!@VERSE:
!!	O fuggitiva e timidetta fera,
!!	Che sei cacciata dove in carro adorno
!!	Madonna fa soggiorno,
!!	Deh! non t'incresca, ch'in sì caro loco
!!	Avrei la morte a gioco;
!!	Perché dov'ella caccia, oh! pur me 'l creda,
!!	Esser io bramo o predatore o preda.
!!@TVERSE:
!!	O fugitive and timid beast,
!!	[You] who are hunted where, in an adorned carriage,
!!	My lady is abiding,
!!	Oh! May you not resent it, for in such a dear place
!!	I would consider death a game;
!!	For where she hunts, oh! believe it well of me,
!!	I wish to be either predator or prey.
!!@@END:		VERSES
!!@OTHER_CRIT_ED:    None
!!@ATTRIBUTION_ABOUT:	Secure
!!	<br>
!!	Among other sources, this sonnet appears in the authoritative manuscript It. 385, Biblioteca Estense Universitaria, Modena, Italy (see Literary Sources)
!!@DATING:	August 1583
!!	<br>
!!	Tasso sent this poem to Cesare D'Este in a letter dated 15 August 1583.
!!@DEDICATEE:	d'Este, Cesare
!!@DEDICATEE_INFO:	(1562-1628)
!!@COMMENTARY:
!!@@END:		VERSEDATA
!!@@BEGIN:	SETTING
!!@CATALOGNUM:	Trm0903a
!!@RIMETITLE:	O fuggitiva e timidetta fiera
!!@SOLERTI:	903
!!@COMPOSER:	Zenaro, Giulio
!!@PRINCEPSTITLE:	Il primo libro de madrigali a tre voci
!!@PRINCEPSLOC:	Venetia
!!@NORMLOC:	Venice
!!@NORMPUB:	Vincenzi & Amadino
!!@NORMPUBSHORT:	Vincenzi & Amadino
!!@PRINCEPSPUB:	Vincenzi
!!@PRINCEPSYEAR:	1589
!!@PRINCEPSRISM:	Z 160
!!@REPRINTS:	
!!@OVOICES:	3
!!@EXTANTVOICES:	3
!!@PARTBOOKS:	
!!@EXTPARTBOOKS:	
!!@OCLEFS:	G2,C2,C3
!!@OMENSURATION:	C
!!@OKEYSIG:	-
!!@FINAL:	G
!!@TIMPEDITOR:	Ricciardi, Emiliano
!!@NOTE:		M19-20 and 26-27, C-T-B, we need to insert a space before the apostrophe in "me'l", Can we do that through Humdrum?
!!@@END:		SETTING
